Numix-GalliumOS/32/actions/gtk-print-paused.svg

<?xml version="1.0" encoding="UTF-8" standalone="no"?>
<svg
   xmlns:dc="http://purl.org/dc/elements/1.1/"
   xmlns:cc="http://creativecommons.org/ns#"
   xmlns:rdf="http://www.w3.org/1999/02/22-rdf-syntax-ns#"
   xmlns:svg="http://www.w3.org/2000/svg"
   xmlns="http://www.w3.org/2000/svg"
   xmlns:sodipodi="http://sodipodi.sourceforge.net/DTD/sodipodi-0.dtd"
   xmlns:inkscape="http://www.inkscape.org/namespaces/inkscape"
   width="32"
   height="32"
   viewBox="0 0 32 32"
   id="svg2"
   version="1.1"
   inkscape:version="0.91 r"
   sodipodi:docname="gtk-print-pause.svg">
  <metadata
     id="metadata16">
    <rdf:RDF>
      <cc:Work
         rdf:about="">
        <dc:format>image/svg+xml</dc:format>
        <dc:type
           rdf:resource="http://purl.org/dc/dcmitype/StillImage" />
        <dc:title></dc:title>
      </cc:Work>
    </rdf:RDF>
  </metadata>
  <defs
     id="defs14" />
  <sodipodi:namedview
     pagecolor="#ffffff"
     bordercolor="#666666"
     borderopacity="1"
     objecttolerance="10"
     gridtolerance="10"
     guidetolerance="10"
     inkscape:pageopacity="0"
     inkscape:pageshadow="2"
     inkscape:window-width="1366"
     inkscape:window-height="747"
     id="namedview12"
     showgrid="true"
     inkscape:zoom="2.6074563"
     inkscape:cx="97.151181"
     inkscape:cy="2.051432"
     inkscape:window-x="0"
     inkscape:window-y="21"
     inkscape:window-maximized="1"
     inkscape:current-layer="svg2">
    <inkscape:grid
       type="xygrid"
       id="grid4169" />
  </sodipodi:namedview>
  <g
     style="fill-rule:evenodd"
     id="g4">
    <path
       style="fill:#aaa;fill-opacity:.941"
       d="M 9.332031 0.0078125 L 22.667969 0.0078125 C 26 0.0078125 26 -0.324219 26 3.339844 L 26 16.667969 C 26 20 26 20 22.667969 20 L 9.332031 20 C 6 20 6 20 6 16.667969 L 6 3.339844 C 6 0.0078125 6 0.0078125 9.332031 0.0078125 Z "
       id="path6" />
    <path
       style="fill:#ccc"
       d="M 3.199219 8 L 28.800781 8 C 32 8 32 8 32 11.199219 L 32 20.800781 C 32 24 32 24 28.800781 24 L 3.199219 24 C 0 24 0 24 0 20.800781 L 0 11.199219 C 0 8 0 8 3.199219 8 Z "
       id="path8" />
  </g>
  <path
     style="fill:#dc322f"
     d="M 6 16 L 26 16 L 26 32 L 6 32 Z "
     id="path10" />
  <path
     inkscape:connector-curvature="0"
     style="fill:#5d5d5d;fill-opacity:1;fill-rule:evenodd"
     d="m 32,7 c 0,3.865039 -3.13496,6.999999 -6.999999,6.999999 C 21.13496,13.999999 18,10.865039 18,7 18,3.13496 21.13496,0 25.000001,0 28.86504,0 32,3.13496 32,7 Z"
     id="path4267-6" />
  <path
     sodipodi:nodetypes="ccccc"
     style="fill:#ffffff;fill-opacity:0.90196078"
     inkscape:connector-curvature="0"
     d="m 21,3.499999 3,0 0,7 -3,0 z"
     id="path4316" />
  <path
     sodipodi:nodetypes="ccccc"
     style="fill:#ffffff;fill-opacity:0.90196078"
     inkscape:connector-curvature="0"
     d="m 26,3.499999 3,0 0,7 -3,0 z"
     id="path4318" />
</svg>

<svg xmlns="http://www.w3.org/2000/svg" viewBox="0 0 32 32">
 <g style="fill-rule:evenodd">
  <path d="m 9.332 0.008 l 13.336 0 c 3.332 0 3.332 -0.332 3.332 3.332 l 0 13.328 c 0 3.332 0 3.332 -3.332 3.332 l -13.336 0 c -3.332 0 -3.332 0 -3.332 -3.332 l 0 -13.328 c 0 -3.332 0 -3.332 3.332 -3.332 Z" style="fill:#aaa;fill-opacity:0.941"/>
  <path d="M 3.199219 8 L 28.800781 8 C 32 8 32 8 32 11.199219 L 32 20.800781 C 32 24 32 24 28.800781 24 L 3.199219 24 C 0 24 0 24 0 20.800781 L 0 11.199219 C 0 8 0 8 3.199219 8 Z " style="fill:#ccc"/>
 </g>
 <path d="m 6 16 l 20 0 l 0 16 l -20 0 Z" style="fill:#dc322f"/>
 <path d="m 32 7 c 0 3.865 -3.135 7 -7 7 c -3.865 0 -7 -3.135 -7 -7 0 -3.865 3.135 -7 7 -7 3.865 0 7 3.135 7 7" style="fill:#5d5d5d;fill-opacity:1;fill-rule:evenodd"/>
 <path d="m 21 3.5 3 0 0 7 -3 0 z" style="fill:#fff;fill-opacity:0.902"/>
 <path d="m 26 3.5 3 0 0 7 -3 0 z" style="fill:#fff;fill-opacity:0.902"/>
</svg>
